images/3233692.svg

<?xml version="1.0" encoding="UTF-8"?>
<svg xmlns="http://www.w3.org/2000/svg" xmlns:xlink="http://www.w3.org/1999/xlink" width="300pt" height="300pt" viewBox="0 0 300 300" version="1.1">
<defs>
<g>
<symbol overflow="visible" id="glyph0-0">
<path style="stroke:none;" d="M 0.453125 1.59375 L 0.453125 -6.34375 L 4.953125 -6.34375 L 4.953125 1.59375 Z M 0.953125 1.09375 L 4.453125 1.09375 L 4.453125 -5.84375 L 0.953125 -5.84375 Z M 0.953125 1.09375 "/>
</symbol>
<symbol overflow="visible" id="glyph0-1">
<path style="stroke:none;" d="M 3.546875 -5.953125 C 2.898438 -5.953125 2.382812 -5.710938 2 -5.234375 C 1.625 -4.753906 1.4375 -4.101562 1.4375 -3.28125 C 1.4375 -2.445312 1.625 -1.789062 2 -1.3125 C 2.382812 -0.832031 2.898438 -0.59375 3.546875 -0.59375 C 4.191406 -0.59375 4.703125 -0.832031 5.078125 -1.3125 C 5.453125 -1.789062 5.640625 -2.445312 5.640625 -3.28125 C 5.640625 -4.101562 5.453125 -4.753906 5.078125 -5.234375 C 4.703125 -5.710938 4.191406 -5.953125 3.546875 -5.953125 Z M 3.546875 -6.6875 C 4.460938 -6.6875 5.195312 -6.375 5.75 -5.75 C 6.300781 -5.132812 6.578125 -4.3125 6.578125 -3.28125 C 6.578125 -2.238281 6.300781 -1.410156 5.75 -0.796875 C 5.195312 -0.179688 4.460938 0.125 3.546875 0.125 C 2.617188 0.125 1.878906 -0.179688 1.328125 -0.796875 C 0.773438 -1.410156 0.5 -2.238281 0.5 -3.28125 C 0.5 -4.3125 0.773438 -5.132812 1.328125 -5.75 C 1.878906 -6.375 2.617188 -6.6875 3.546875 -6.6875 Z M 3.546875 -6.6875 "/>
</symbol>
<symbol overflow="visible" id="glyph0-2">
<path style="stroke:none;" d="M 0.890625 -6.5625 L 2.078125 -6.5625 L 4.984375 -1.078125 L 4.984375 -6.5625 L 5.84375 -6.5625 L 5.84375 0 L 4.65625 0 L 1.75 -5.484375 L 1.75 0 L 0.890625 0 Z M 0.890625 -6.5625 "/>
</symbol>
</g>
</defs>
<g id="surface32393">
<rect x="0" y="0" width="300" height="300" style="fill:rgb(100%,100%,100%);fill-opacity:1;stroke:none;"/>
<path style="fill:none;stroke-width:1.2;stroke-linecap:butt;stroke-linejoin:miter;stroke:rgb(0%,0%,0%);stroke-opacity:1;stroke-miterlimit:10;" d="M 35.25 105.90625 L 38.207031 117.175781 "/>
<path style="fill:none;stroke-width:1.2;stroke-linecap:butt;stroke-linejoin:miter;stroke:rgb(100%,0%,0%);stroke-opacity:1;stroke-miterlimit:10;" d="M 38.207031 117.175781 L 41.160156 128.445312 "/>
<path style="fill:none;stroke-width:1.2;stroke-linecap:butt;stroke-linejoin:miter;stroke:rgb(100%,0%,0%);stroke-opacity:1;stroke-miterlimit:10;" d="M 41.160156 128.445312 L 52.398438 131.519531 "/>
<path style="fill:none;stroke-width:1.2;stroke-linecap:butt;stroke-linejoin:miter;stroke:rgb(0%,0%,0%);stroke-opacity:1;stroke-miterlimit:10;" d="M 52.398438 131.519531 L 63.636719 134.597656 "/>
<path style=" stroke:none;fill-rule:nonzero;fill:rgb(100%,100%,100%);fill-opacity:1;" d="M 37.160156 122.945312 L 45.160156 122.945312 L 45.160156 133.945312 L 37.160156 133.945312 Z M 37.160156 122.945312 "/>
<g style="fill:rgb(100%,0%,0%);fill-opacity:1;">
  <use xlink:href="#glyph0-1" x="37.160156" y="131.608398"/>
</g>
<path style="fill:none;stroke-width:1.2;stroke-linecap:butt;stroke-linejoin:miter;stroke:rgb(0%,0%,0%);stroke-opacity:1;stroke-miterlimit:10;" d="M 63.636719 134.597656 L 80.199219 118.207031 "/>
<path style="fill:none;stroke-width:1.2;stroke-linecap:butt;stroke-linejoin:miter;stroke:rgb(0%,0%,0%);stroke-opacity:1;stroke-miterlimit:10;" d="M 69.148438 136.855469 L 82.402344 123.746094 "/>
<path style="fill:none;stroke-width:1.2;stroke-linecap:butt;stroke-linejoin:miter;stroke:rgb(0%,0%,0%);stroke-opacity:1;stroke-miterlimit:10;" d="M 69.546875 157.136719 L 63.636719 134.597656 "/>
<path style="fill:none;stroke-width:1.2;stroke-linecap:butt;stroke-linejoin:miter;stroke:rgb(0%,0%,0%);stroke-opacity:1;stroke-miterlimit:10;" d="M 80.199219 118.207031 L 102.675781 124.359375 "/>
<path style="fill:none;stroke-width:1.2;stroke-linecap:butt;stroke-linejoin:miter;stroke:rgb(0%,0%,0%);stroke-opacity:1;stroke-miterlimit:10;" d="M 102.675781 124.359375 L 108.585938 146.898438 "/>
<path style="fill:none;stroke-width:1.2;stroke-linecap:butt;stroke-linejoin:miter;stroke:rgb(0%,0%,0%);stroke-opacity:1;stroke-miterlimit:10;" d="M 97.964844 128.003906 L 102.691406 146.035156 "/>
<path style="fill:none;stroke-width:1.2;stroke-linecap:butt;stroke-linejoin:miter;stroke:rgb(0%,0%,0%);stroke-opacity:1;stroke-miterlimit:10;" d="M 108.585938 146.898438 L 92.019531 163.289062 "/>
<path style="fill:none;stroke-width:1.2;stroke-linecap:butt;stroke-linejoin:miter;stroke:rgb(0%,0%,0%);stroke-opacity:1;stroke-miterlimit:10;" d="M 108.585938 146.898438 L 131.0625 153.050781 "/>
<path style="fill:none;stroke-width:1.2;stroke-linecap:butt;stroke-linejoin:miter;stroke:rgb(0%,0%,0%);stroke-opacity:1;stroke-miterlimit:10;" d="M 92.019531 163.289062 L 69.546875 157.136719 "/>
<path style="fill:none;stroke-width:1.2;stroke-linecap:butt;stroke-linejoin:miter;stroke:rgb(0%,0%,0%);stroke-opacity:1;stroke-miterlimit:10;" d="M 91.222656 157.386719 L 73.242188 152.464844 "/>
<path style="fill:none;stroke-width:1.2;stroke-linecap:butt;stroke-linejoin:miter;stroke:rgb(0%,0%,0%);stroke-opacity:1;stroke-miterlimit:10;" d="M 131.0625 153.050781 L 134.015625 164.320312 "/>
<path style="fill:none;stroke-width:1.2;stroke-linecap:butt;stroke-linejoin:miter;stroke:rgb(0%,0%,100%);stroke-opacity:1;stroke-miterlimit:10;" d="M 134.015625 164.320312 L 136.972656 175.59375 "/>
<path style="fill:none;stroke-width:1.2;stroke-linecap:butt;stroke-linejoin:miter;stroke:rgb(0%,0%,0%);stroke-opacity:1;stroke-miterlimit:10;" d="M 136.957031 153.914062 L 139.320312 162.929688 "/>
<path style="fill:none;stroke-width:1.2;stroke-linecap:butt;stroke-linejoin:miter;stroke:rgb(0%,0%,100%);stroke-opacity:1;stroke-miterlimit:10;" d="M 139.320312 162.929688 L 141.683594 171.945312 "/>
<path style="fill:none;stroke-width:1.2;stroke-linecap:butt;stroke-linejoin:miter;stroke:rgb(0%,0%,0%);stroke-opacity:1;stroke-miterlimit:10;" d="M 147.628906 136.664062 L 131.0625 153.050781 "/>
<path style="fill:none;stroke-width:1.2;stroke-linecap:butt;stroke-linejoin:miter;stroke:rgb(0%,0%,100%);stroke-opacity:1;stroke-miterlimit:10;" d="M 136.972656 175.59375 L 148.210938 178.667969 "/>
<path style="fill:none;stroke-width:1.2;stroke-linecap:butt;stroke-linejoin:miter;stroke:rgb(0%,0%,0%);stroke-opacity:1;stroke-miterlimit:10;" d="M 148.210938 178.667969 L 159.449219 181.742188 "/>
<path style=" stroke:none;fill-rule:nonzero;fill:rgb(100%,100%,100%);fill-opacity:1;" d="M 133.972656 170.09375 L 140.972656 170.09375 L 140.972656 181.09375 L 133.972656 181.09375 Z M 133.972656 170.09375 "/>
<g style="fill:rgb(0%,0%,100%);fill-opacity:1;">
  <use xlink:href="#glyph0-2" x="133.972656" y="178.756836"/>
</g>
<path style="fill:none;stroke-width:1.2;stroke-linecap:butt;stroke-linejoin:miter;stroke:rgb(0%,0%,0%);stroke-opacity:1;stroke-miterlimit:10;" d="M 159.449219 181.742188 L 165.359375 204.285156 "/>
<path style="fill:none;stroke-width:1.2;stroke-linecap:butt;stroke-linejoin:miter;stroke:rgb(0%,0%,0%);stroke-opacity:1;stroke-miterlimit:10;" d="M 165.34375 182.605469 L 170.070312 200.640625 "/>
<path style="fill:none;stroke-width:1.2;stroke-linecap:butt;stroke-linejoin:miter;stroke:rgb(0%,0%,0%);stroke-opacity:1;stroke-miterlimit:10;" d="M 176.011719 165.355469 L 159.449219 181.742188 "/>
<path style="fill:none;stroke-width:1.2;stroke-linecap:butt;stroke-linejoin:miter;stroke:rgb(0%,0%,0%);stroke-opacity:1;stroke-miterlimit:10;" d="M 165.359375 204.285156 L 176.597656 207.359375 "/>
<path style="fill:none;stroke-width:1.2;stroke-linecap:butt;stroke-linejoin:miter;stroke:rgb(0%,0%,100%);stroke-opacity:1;stroke-miterlimit:10;" d="M 176.597656 207.359375 L 187.832031 210.4375 "/>
<path style="fill:none;stroke-width:1.2;stroke-linecap:butt;stroke-linejoin:miter;stroke:rgb(0%,0%,100%);stroke-opacity:1;stroke-miterlimit:10;" d="M 187.832031 210.4375 L 196.117188 202.242188 "/>
<path style="fill:none;stroke-width:1.2;stroke-linecap:butt;stroke-linejoin:miter;stroke:rgb(0%,0%,0%);stroke-opacity:1;stroke-miterlimit:10;" d="M 196.117188 202.242188 L 204.398438 194.046875 "/>
<path style="fill:none;stroke-width:1.2;stroke-linecap:butt;stroke-linejoin:miter;stroke:rgb(0%,0%,100%);stroke-opacity:1;stroke-miterlimit:10;" d="M 185.632812 204.898438 L 192.261719 198.34375 "/>
<path style="fill:none;stroke-width:1.2;stroke-linecap:butt;stroke-linejoin:miter;stroke:rgb(0%,0%,0%);stroke-opacity:1;stroke-miterlimit:10;" d="M 192.261719 198.34375 L 198.886719 191.789062 "/>
<path style=" stroke:none;fill-rule:nonzero;fill:rgb(100%,100%,100%);fill-opacity:1;" d="M 184.832031 204.9375 L 191.832031 204.9375 L 191.832031 215.9375 L 184.832031 215.9375 Z M 184.832031 204.9375 "/>
<g style="fill:rgb(0%,0%,100%);fill-opacity:1;">
  <use xlink:href="#glyph0-2" x="184.832031" y="213.600586"/>
</g>
<path style="fill:none;stroke-width:1.2;stroke-linecap:butt;stroke-linejoin:miter;stroke:rgb(0%,0%,0%);stroke-opacity:1;stroke-miterlimit:10;" d="M 204.398438 194.046875 L 201.445312 182.777344 "/>
<path style="fill:none;stroke-width:1.2;stroke-linecap:butt;stroke-linejoin:miter;stroke:rgb(0%,0%,100%);stroke-opacity:1;stroke-miterlimit:10;" d="M 201.445312 182.777344 L 198.488281 171.507812 "/>
<path style="fill:none;stroke-width:1.2;stroke-linecap:butt;stroke-linejoin:miter;stroke:rgb(0%,0%,0%);stroke-opacity:1;stroke-miterlimit:10;" d="M 204.398438 194.046875 L 215.636719 197.121094 "/>
<path style="fill:none;stroke-width:1.2;stroke-linecap:butt;stroke-linejoin:miter;stroke:rgb(100%,0%,0%);stroke-opacity:1;stroke-miterlimit:10;" d="M 215.636719 197.121094 L 226.875 200.199219 "/>
<path style="fill:none;stroke-width:1.2;stroke-linecap:butt;stroke-linejoin:miter;stroke:rgb(0%,0%,100%);stroke-opacity:1;stroke-miterlimit:10;" d="M 198.488281 171.507812 L 187.25 168.429688 "/>
<path style="fill:none;stroke-width:1.2;stroke-linecap:butt;stroke-linejoin:miter;stroke:rgb(0%,0%,0%);stroke-opacity:1;stroke-miterlimit:10;" d="M 187.25 168.429688 L 176.011719 165.355469 "/>
<path style="fill:none;stroke-width:1.2;stroke-linecap:butt;stroke-linejoin:miter;stroke:rgb(0%,0%,100%);stroke-opacity:1;stroke-miterlimit:10;" d="M 194.792969 176.179688 L 185.804688 173.71875 "/>
<path style="fill:none;stroke-width:1.2;stroke-linecap:butt;stroke-linejoin:miter;stroke:rgb(0%,0%,0%);stroke-opacity:1;stroke-miterlimit:10;" d="M 185.804688 173.71875 L 176.8125 171.257812 "/>
<path style=" stroke:none;fill-rule:nonzero;fill:rgb(100%,100%,100%);fill-opacity:1;" d="M 195.488281 166.007812 L 202.488281 166.007812 L 202.488281 177.007812 L 195.488281 177.007812 Z M 195.488281 166.007812 "/>
<g style="fill:rgb(0%,0%,100%);fill-opacity:1;">
  <use xlink:href="#glyph0-2" x="195.488281" y="174.670898"/>
</g>
<path style="fill:none;stroke-width:1.2;stroke-linecap:butt;stroke-linejoin:miter;stroke:rgb(0%,0%,0%);stroke-opacity:1;stroke-miterlimit:10;" d="M 176.011719 165.355469 L 173.058594 154.085938 "/>
<path style="fill:none;stroke-width:1.2;stroke-linecap:butt;stroke-linejoin:miter;stroke:rgb(0%,0%,100%);stroke-opacity:1;stroke-miterlimit:10;" d="M 173.058594 154.085938 L 170.101562 142.816406 "/>
<path style="fill:none;stroke-width:1.2;stroke-linecap:butt;stroke-linejoin:miter;stroke:rgb(0%,0%,100%);stroke-opacity:1;stroke-miterlimit:10;" d="M 170.101562 142.816406 L 158.867188 139.738281 "/>
<path style="fill:none;stroke-width:1.2;stroke-linecap:butt;stroke-linejoin:miter;stroke:rgb(0%,0%,0%);stroke-opacity:1;stroke-miterlimit:10;" d="M 158.867188 139.738281 L 147.628906 136.664062 "/>
<path style="fill:none;stroke-width:1.2;stroke-linecap:butt;stroke-linejoin:miter;stroke:rgb(0%,0%,100%);stroke-opacity:1;stroke-miterlimit:10;" d="M 170.101562 142.816406 L 178.386719 134.621094 "/>
<path style="fill:none;stroke-width:1.2;stroke-linecap:butt;stroke-linejoin:miter;stroke:rgb(0%,0%,0%);stroke-opacity:1;stroke-miterlimit:10;" d="M 178.386719 134.621094 L 186.667969 126.425781 "/>
<path style=" stroke:none;fill-rule:nonzero;fill:rgb(100%,100%,100%);fill-opacity:1;" d="M 167.101562 137.316406 L 174.101562 137.316406 L 174.101562 148.316406 L 167.101562 148.316406 Z M 167.101562 137.316406 "/>
<g style="fill:rgb(0%,0%,100%);fill-opacity:1;">
  <use xlink:href="#glyph0-2" x="167.101562" y="145.979492"/>
</g>
<path style="fill:none;stroke-width:1.2;stroke-linecap:butt;stroke-linejoin:miter;stroke:rgb(0%,0%,0%);stroke-opacity:1;stroke-miterlimit:10;" d="M 150.28125 135.96875 L 147.324219 124.699219 "/>
<path style="fill:none;stroke-width:1.2;stroke-linecap:butt;stroke-linejoin:miter;stroke:rgb(100%,0%,0%);stroke-opacity:1;stroke-miterlimit:10;" d="M 147.324219 124.699219 L 144.367188 113.425781 "/>
<path style="fill:none;stroke-width:1.2;stroke-linecap:butt;stroke-linejoin:miter;stroke:rgb(0%,0%,0%);stroke-opacity:1;stroke-miterlimit:10;" d="M 144.976562 137.359375 L 142.019531 126.089844 "/>
<path style="fill:none;stroke-width:1.2;stroke-linecap:butt;stroke-linejoin:miter;stroke:rgb(100%,0%,0%);stroke-opacity:1;stroke-miterlimit:10;" d="M 142.019531 126.089844 L 139.066406 114.816406 "/>
<path style=" stroke:none;fill-rule:nonzero;fill:rgb(100%,100%,100%);fill-opacity:1;" d="M 137.71875 108.621094 L 145.71875 108.621094 L 145.71875 119.621094 L 137.71875 119.621094 Z M 137.71875 108.621094 "/>
<g style="fill:rgb(100%,0%,0%);fill-opacity:1;">
  <use xlink:href="#glyph0-1" x="137.71875" y="117.28418"/>
</g>
<path style="fill:none;stroke-width:1.2;stroke-linecap:butt;stroke-linejoin:miter;stroke:rgb(0%,0%,0%);stroke-opacity:1;stroke-miterlimit:10;" d="M 186.667969 126.425781 L 209.144531 132.578125 "/>
<path style="fill:none;stroke-width:1.2;stroke-linecap:butt;stroke-linejoin:miter;stroke:rgb(0%,0%,0%);stroke-opacity:1;stroke-miterlimit:10;" d="M 209.144531 132.578125 L 225.710938 116.191406 "/>
<path style="fill:none;stroke-width:1.2;stroke-linecap:butt;stroke-linejoin:miter;stroke:rgb(0%,0%,0%);stroke-opacity:1;stroke-miterlimit:10;" d="M 225.710938 116.191406 L 248.183594 122.339844 "/>
<path style="fill:none;stroke-width:1.2;stroke-linecap:butt;stroke-linejoin:miter;stroke:rgb(0%,0%,0%);stroke-opacity:1;stroke-miterlimit:10;" d="M 229.402344 111.515625 L 247.382812 116.4375 "/>
<path style="fill:none;stroke-width:1.2;stroke-linecap:butt;stroke-linejoin:miter;stroke:rgb(0%,0%,0%);stroke-opacity:1;stroke-miterlimit:10;" d="M 219.800781 93.648438 L 225.710938 116.191406 "/>
<path style="fill:none;stroke-width:1.2;stroke-linecap:butt;stroke-linejoin:miter;stroke:rgb(0%,0%,0%);stroke-opacity:1;stroke-miterlimit:10;" d="M 248.183594 122.339844 L 264.75 105.953125 "/>
<path style="fill:none;stroke-width:1.2;stroke-linecap:butt;stroke-linejoin:miter;stroke:rgb(0%,0%,0%);stroke-opacity:1;stroke-miterlimit:10;" d="M 264.75 105.953125 L 258.839844 83.414062 "/>
<path style="fill:none;stroke-width:1.2;stroke-linecap:butt;stroke-linejoin:miter;stroke:rgb(0%,0%,0%);stroke-opacity:1;stroke-miterlimit:10;" d="M 258.855469 105.089844 L 254.128906 87.058594 "/>
<path style="fill:none;stroke-width:1.2;stroke-linecap:butt;stroke-linejoin:miter;stroke:rgb(0%,0%,0%);stroke-opacity:1;stroke-miterlimit:10;" d="M 258.839844 83.414062 L 236.363281 77.261719 "/>
<path style="fill:none;stroke-width:1.2;stroke-linecap:butt;stroke-linejoin:miter;stroke:rgb(0%,0%,0%);stroke-opacity:1;stroke-miterlimit:10;" d="M 236.363281 77.261719 L 219.800781 93.648438 "/>
<path style="fill:none;stroke-width:1.2;stroke-linecap:butt;stroke-linejoin:miter;stroke:rgb(0%,0%,0%);stroke-opacity:1;stroke-miterlimit:10;" d="M 238.5625 82.796875 L 225.3125 95.910156 "/>
<path style="fill:none;stroke-width:1.2;stroke-linecap:butt;stroke-linejoin:miter;stroke:rgb(100%,0%,0%);stroke-opacity:1;stroke-miterlimit:10;" d="M 226.875 200.199219 L 229.828125 211.46875 "/>
<path style="fill:none;stroke-width:1.2;stroke-linecap:butt;stroke-linejoin:miter;stroke:rgb(0%,0%,0%);stroke-opacity:1;stroke-miterlimit:10;" d="M 229.828125 211.46875 L 232.785156 222.738281 "/>
<path style=" stroke:none;fill-rule:nonzero;fill:rgb(100%,100%,100%);fill-opacity:1;" d="M 222.875 194.699219 L 230.875 194.699219 L 230.875 205.699219 L 222.875 205.699219 Z M 222.875 194.699219 "/>
<g style="fill:rgb(100%,0%,0%);fill-opacity:1;">
  <use xlink:href="#glyph0-1" x="222.875" y="203.362305"/>
</g>
</g>
</svg>

<svg xmlns="http://www.w3.org/2000/svg" xmlns:xlink="http://www.w3.org/1999/xlink" width="300pt" height="300pt" viewBox="0 0 300 300"><defs><symbol overflow="visible"><path d="M.453 1.594v-7.938h4.5v7.938zm.5-.5h3.5v-6.938h-3.5zm0 0"/></symbol><symbol overflow="visible" id="a"><path d="M3.547-5.953c-.65 0-1.164.242-1.547.72-.375.48-.563 1.13-.563 1.952 0 .835.188 1.49.563 1.967.383.48.898.72 1.547.72.644 0 1.156-.24 1.53-.72.376-.476.564-1.132.564-1.968 0-.822-.187-1.474-.562-1.954-.375-.477-.887-.72-1.53-.72zm0-.734c.914 0 1.648.312 2.203.937.55.617.828 1.438.828 2.47 0 1.042-.277 1.87-.828 2.483-.555.617-1.29.922-2.203.922-.93 0-1.668-.305-2.22-.922C.774-1.41.5-2.237.5-3.28c0-1.033.273-1.853.828-2.47.55-.625 1.29-.938 2.22-.938zm0 0"/></symbol><symbol overflow="visible" id="b"><path d="M.89-6.563H2.08l2.906 5.485v-5.484h.86V0H4.656L1.75-5.484V0H.89zm0 0"/></symbol></defs><g><path fill="#fff" d="M0 0h300v300H0z"/><path d="M35.25 105.906l2.957 11.27" stroke-width="1.2" stroke="#000" stroke-miterlimit="10" fill="none"/><path d="M38.207 117.176l2.953 11.27M41.16 128.445l11.238 3.075" stroke-width="1.2" stroke="#f00" stroke-miterlimit="10" fill="none"/><path d="M52.398 131.52l11.24 3.078" stroke-width="1.2" stroke="#000" stroke-miterlimit="10" fill="none"/><path d="M37.16 122.945h8v11h-8zm0 0" fill="#fff"/><use xlink:href="#a" x="37.16" y="131.608" fill="#f00"/><path d="M63.637 134.598l16.562-16.39M69.148 136.855l13.254-13.11M69.547 157.137l-5.91-22.54M80.2 118.207l22.476 6.152M102.676 124.36l5.91 22.538M97.965 128.004l4.726 18.03M108.586 146.898l-16.566 16.39M108.586 146.898l22.477 6.153M92.02 163.29l-22.473-6.153M91.223 157.387l-17.98-4.922M131.063 153.05l2.953 11.27" stroke-width="1.2" stroke="#000" stroke-miterlimit="10" fill="none"/><path d="M134.016 164.32l2.957 11.274" stroke-width="1.2" stroke="#00f" stroke-miterlimit="10" fill="none"/><path d="M136.957 153.914l2.363 9.016" stroke-width="1.2" stroke="#000" stroke-miterlimit="10" fill="none"/><path d="M139.32 162.93l2.364 9.015" stroke-width="1.2" stroke="#00f" stroke-miterlimit="10" fill="none"/><path d="M147.63 136.664l-16.567 16.387" stroke-width="1.2" stroke="#000" stroke-miterlimit="10" fill="none"/><path d="M136.973 175.594l11.238 3.074" stroke-width="1.2" stroke="#00f" stroke-miterlimit="10" fill="none"/><path d="M148.21 178.668l11.24 3.074" stroke-width="1.2" stroke="#000" stroke-miterlimit="10" fill="none"/><path d="M133.973 170.094h7v11h-7zm0 0" fill="#fff"/><use xlink:href="#b" x="133.973" y="178.757" fill="#00f"/><path d="M159.45 181.742l5.91 22.543M165.344 182.605l4.726 18.036M176.012 165.355l-16.563 16.387M165.36 204.285l11.238 3.074" stroke-width="1.2" stroke="#000" stroke-miterlimit="10" fill="none"/><path d="M176.598 207.36l11.234 3.077M187.832 210.438l8.285-8.196" stroke-width="1.2" stroke="#00f" stroke-miterlimit="10" fill="none"/><path d="M196.117 202.242l8.28-8.195" stroke-width="1.2" stroke="#000" stroke-miterlimit="10" fill="none"/><path d="M185.633 204.898l6.63-6.554" stroke-width="1.2" stroke="#00f" stroke-miterlimit="10" fill="none"/><path d="M192.262 198.344l6.625-6.555" stroke-width="1.2" stroke="#000" stroke-miterlimit="10" fill="none"/><path d="M184.832 204.938h7v11h-7zm0 0" fill="#fff"/><use xlink:href="#b" x="184.832" y="213.601" fill="#00f"/><path d="M204.398 194.047l-2.953-11.27" stroke-width="1.2" stroke="#000" stroke-miterlimit="10" fill="none"/><path d="M201.445 182.777l-2.957-11.27" stroke-width="1.2" stroke="#00f" stroke-miterlimit="10" fill="none"/><path d="M204.398 194.047l11.24 3.074" stroke-width="1.2" stroke="#000" stroke-miterlimit="10" fill="none"/><path d="M215.637 197.12l11.238 3.08" stroke-width="1.2" stroke="#f00" stroke-miterlimit="10" fill="none"/><path d="M198.488 171.508l-11.238-3.078" stroke-width="1.2" stroke="#00f" stroke-miterlimit="10" fill="none"/><path d="M187.25 168.43l-11.238-3.075" stroke-width="1.2" stroke="#000" stroke-miterlimit="10" fill="none"/><path d="M194.793 176.18l-8.988-2.46" stroke-width="1.2" stroke="#00f" stroke-miterlimit="10" fill="none"/><path d="M185.805 173.72l-8.993-2.462" stroke-width="1.2" stroke="#000" stroke-miterlimit="10" fill="none"/><path d="M195.488 166.008h7v11h-7zm0 0" fill="#fff"/><use xlink:href="#b" x="195.488" y="174.671" fill="#00f"/><path d="M176.012 165.355l-2.953-11.27" stroke-width="1.2" stroke="#000" stroke-miterlimit="10" fill="none"/><path d="M173.06 154.086l-2.958-11.27M170.102 142.816l-11.235-3.078" stroke-width="1.2" stroke="#00f" stroke-miterlimit="10" fill="none"/><path d="M158.867 139.738l-11.238-3.074" stroke-width="1.2" stroke="#000" stroke-miterlimit="10" fill="none"/><path d="M170.102 142.816l8.285-8.195" stroke-width="1.2" stroke="#00f" stroke-miterlimit="10" fill="none"/><path d="M178.387 134.62l8.28-8.194" stroke-width="1.2" stroke="#000" stroke-miterlimit="10" fill="none"/><path d="M167.102 137.316h7v11h-7zm0 0" fill="#fff"/><use xlink:href="#b" x="167.102" y="145.979" fill="#00f"/><path d="M150.28 135.97l-2.956-11.27" stroke-width="1.2" stroke="#000" stroke-miterlimit="10" fill="none"/><path d="M147.324 124.7l-2.957-11.274" stroke-width="1.2" stroke="#f00" stroke-miterlimit="10" fill="none"/><path d="M144.977 137.36l-2.957-11.27" stroke-width="1.2" stroke="#000" stroke-miterlimit="10" fill="none"/><path d="M142.02 126.09l-2.954-11.274" stroke-width="1.2" stroke="#f00" stroke-miterlimit="10" fill="none"/><path d="M137.72 108.62h8v11h-8zm0 0" fill="#fff"/><use xlink:href="#a" x="137.719" y="117.284" fill="#f00"/><path d="M186.668 126.426l22.477 6.152M209.145 132.578l16.566-16.387M225.71 116.19l22.474 6.15M229.402 111.516l17.98 4.92M219.8 93.648l5.91 22.543M248.184 122.34l16.566-16.387M264.75 105.953l-5.91-22.54M258.855 105.09l-4.726-18.03M258.84 83.414l-22.477-6.152M236.363 77.262L219.8 93.648M238.563 82.797l-13.25 13.113" stroke-width="1.2" stroke="#000" stroke-miterlimit="10" fill="none"/><path d="M226.875 200.2l2.953 11.27" stroke-width="1.2" stroke="#f00" stroke-miterlimit="10" fill="none"/><path d="M229.828 211.47l2.957 11.268" stroke-width="1.2" stroke="#000" stroke-miterlimit="10" fill="none"/><path d="M222.875 194.7h8v11h-8zm0 0" fill="#fff"/><use xlink:href="#a" x="222.875" y="203.362" fill="#f00"/></g></svg>
